images/slaughter-icon.svg

<svg width="75" height="100" viewBox="0 0 75 100" fill="none" xmlns="http://www.w3.org/2000/svg">
<path fill-rule="evenodd" clip-rule="evenodd" d="M34.1463 0.814453L34.3874 1.80947L38.8444 20.1971L39.9711 20.774L42.4026 16.7109L42.6517 16.2947L43.0587 16.5097L51.1097 20.7628L51.5639 21.0028L51.2843 21.4663L48.9334 25.3628L53.4109 27.6553L54.1215 28.0191L53.6711 28.7297L47.3012 38.7807L46.9355 39.3578L46.3512 39.0767L43.3354 37.6263L9.56747 90.9403L9.17182 90.6867L9.56746 90.9403C8.05669 93.3253 4.9136 94.2644 2.52863 93.0434C0.119567 91.8101 -0.607007 88.8394 0.90737 86.4276L0.907403 86.4276L34.2871 33.282L33.0412 32.684L33.0408 32.6839L30.115 31.2775L30.012 31.3102C29.7662 31.3881 29.4058 31.502 28.9472 31.6467C28.0298 31.9359 26.7192 32.3477 25.1458 32.838C21.9991 33.8186 17.8001 35.1138 13.5923 36.3712L12.8759 36.5853L12.6997 35.8583C12.3737 34.5132 12.3191 31.8616 13.0001 28.5156C13.6858 25.147 15.1273 21.0207 17.8501 16.7218C20.5772 12.416 24.4457 8.58376 27.6059 5.84194C29.1904 4.46719 30.6065 3.35836 31.6275 2.59246C32.1382 2.20939 32.5505 1.91176 32.8361 1.7092C32.979 1.60791 33.0902 1.53036 33.1662 1.47776C33.2043 1.45146 33.2335 1.4314 33.2535 1.41771L33.2766 1.402L33.2828 1.39777L33.2846 1.39656L33.2852 1.39619C33.2853 1.39607 33.2855 1.39597 33.6711 2.02356L33.2855 1.39597L34.1463 0.814453ZM40.837 21.2173L48.0673 24.9193L50.175 21.426L42.9851 17.6278L40.837 21.2173ZM37.8532 21.4135L39.1814 22.0936L39.1156 22.2036L39.5767 22.4397L47.6695 26.583L48.0727 26.7894L48.1388 26.6798L51.9951 28.6542L46.4412 37.4176L41.8983 35.2327L41.8977 35.2325L33.7148 31.3056L33.7144 31.3054L30.5374 29.7783L30.2854 29.6572L30.0116 29.7443L30.2004 30.4674L30.0115 29.7443L30.0112 29.7444L30.0101 29.7447L30.0056 29.7462L29.9875 29.7519L29.9159 29.7747L29.6361 29.8634C29.3909 29.941 29.0312 30.0548 28.5732 30.1992C27.6572 30.488 26.3482 30.8993 24.7766 31.3891C21.825 32.3089 17.9482 33.5052 14.0091 34.6868C13.8711 33.435 13.914 31.364 14.4439 28.7611C15.0936 25.5688 16.466 21.6284 19.076 17.5075C21.6816 13.3936 25.4172 9.68029 28.5278 6.98149C30.0787 5.63593 31.4647 4.55068 32.462 3.80258C32.7406 3.59352 32.9888 3.41089 33.2016 3.25639L37.4895 20.9462L37.5672 21.2671L37.8532 21.4135ZM41.224 36.6109L35.168 33.7047L11.1572 71.9336L18.1781 75.5312L42.4545 37.2027L41.2245 36.6111L41.224 36.6109ZM17.6285 76.399L10.611 72.8031L8.92219 75.492L15.9289 79.0824L17.6285 76.399ZM6.51825 79.3194L8.37605 76.3615L15.3793 79.9501L13.5114 82.8992L6.51825 79.3194ZM12.9617 83.767L5.97209 80.189L1.72696 86.9479L1.72692 86.948C0.532081 88.8509 1.09632 91.161 2.99867 92.1349C4.93714 93.1273 7.52222 92.3549 8.75013 90.4165L12.9617 83.767ZM68.8068 44.374L69.1603 44.7273C73.66 49.2242 74.8722 53.7696 74.1291 57.9893C73.3925 62.1719 70.7493 65.952 67.7047 68.9937L56.8123 79.8861L52.2843 84.4142L50.9267 85.7718L50.5591 86.1394L50.4636 86.2348L50.4393 86.2591L50.4332 86.2652L50.4317 86.2668L50.4313 86.2672C50.4312 86.2673 50.4312 86.2673 50.0776 85.9137L50.4312 86.2673L50.0776 86.6208L49.724 86.2673L46.1545 82.6978L46.1095 82.7492C45.8536 83.0415 45.4833 83.4637 45.0251 83.9843C44.1087 85.0253 42.8407 86.4595 41.4344 88.032C38.6247 91.1738 35.2528 94.8792 33.0306 97.1013C30.5501 99.5845 28.2582 99.9815 26.546 99.6893C25.7053 99.5457 25.0287 99.2402 24.5622 98.971C24.3285 98.8362 24.1456 98.7093 24.0191 98.6144C23.9559 98.5669 23.9065 98.5272 23.8717 98.4983C23.8543 98.4839 23.8406 98.4721 23.8305 98.4634L23.8183 98.4526L23.8142 98.449L23.8127 98.4477L23.8121 98.4471C23.8119 98.4469 23.8116 98.4466 24.146 98.0784C23.8109 98.446 23.8107 98.4458 23.8104 98.4455L23.8098 98.445L23.8084 98.4437L23.8042 98.4398L23.7914 98.4278C23.7809 98.4178 23.7664 98.4039 23.7485 98.3862C23.7127 98.3508 23.663 98.3001 23.6027 98.2348C23.4823 98.1043 23.3192 97.9146 23.1415 97.6712C22.7873 97.1862 22.3675 96.4779 22.1179 95.5925C21.6071 93.7804 21.8422 91.3385 24.4889 88.6918L48.367 64.8137L62.2949 50.8859L66.7716 46.4091L68.0151 45.1656L68.3416 44.8392L68.4251 44.7556L68.4462 44.7345L68.4515 44.7292L68.4529 44.7278C68.4532 44.7275 68.4533 44.7274 68.8069 45.0809L68.4533 44.7274L68.8068 44.374ZM24.146 98.0784L23.8116 98.4466L23.8109 98.446L24.146 98.0784ZM68.7222 45.8727L67.4787 47.1162L63.002 51.593L49.0741 65.5208L39.7355 74.8594L46.1049 81.2339L46.2574 81.3865L46.4835 81.6125L50.0776 85.2066L50.2196 85.0647L51.5772 83.7071L56.1052 79.179L66.9978 68.2865L66.9979 68.2863C69.9741 65.3129 72.4584 61.7104 73.1443 57.8158C73.8048 54.0651 72.8112 49.9656 68.8034 45.7916L68.7222 45.8727ZM34.1063 80.4887L39.0284 75.5666L45.4459 81.9891L45.3571 82.0905C45.1018 82.3821 44.732 82.8037 44.2745 83.3235C43.389 84.3294 42.1751 85.7026 40.8254 87.2128L34.1063 80.4887ZM33.3991 81.1958L31.1677 83.4272L38.0408 90.3052C38.7558 89.5179 39.4692 88.7265 40.1574 87.959L33.3991 81.1958ZM28.2298 86.3651L30.4606 84.1343L37.3668 91.0454C36.6401 91.8414 35.9193 92.6242 35.2289 93.3642L28.2298 86.3651ZM27.5227 87.0723L25.196 89.3989C22.7868 91.8081 22.6746 93.8817 23.0804 95.3212C23.2891 96.0616 23.6436 96.6631 23.9491 97.0815C24.1012 97.2898 24.2394 97.4501 24.3377 97.5568C24.3868 97.61 24.4259 97.6497 24.4515 97.675C24.4643 97.6876 24.4737 97.6967 24.4794 97.702L24.4827 97.7053L24.4831 97.7056L24.4834 97.7059L24.4849 97.7073L24.4869 97.7089C24.4914 97.7129 24.4995 97.7198 24.5109 97.7293C24.5338 97.7483 24.5702 97.7777 24.6194 97.8146C24.7181 97.8887 24.8674 97.9926 25.062 98.1049C25.4522 98.33 26.0168 98.5845 26.7143 98.7035C28.0786 98.9364 30.0513 98.6691 32.3233 96.3944L32.3235 96.3942C32.9768 95.7408 33.732 94.9565 34.5446 94.0942L27.5227 87.0723Z" fill="url(#paint0_linear)"/>
<defs>
<linearGradient id="paint0_linear" x1="38.7291" y1="-43.5888" x2="38.7291" y2="97.6897" gradientUnits="userSpaceOnUse">
<stop stop-color="#AD844C"/>
<stop offset="0.760417" stop-color="#BDA180"/>
<stop offset="1" stop-color="#AD844C"/>
</linearGradient>
</defs>
</svg>

<svg width="75" height="100" fill="none" xmlns="http://www.w3.org/2000/svg"><path fill-rule="evenodd" clip-rule="evenodd" d="M34.146.814l.241.995 4.457 18.388 1.127.577 2.432-4.063.249-.416.407.215 8.05 4.253.455.24-.28.463-2.35 3.897 4.477 2.292.71.364-.45.71-6.37 10.052-.366.577-.584-.281-3.016-1.45L9.567 90.94l-.395-.253.395.253c-1.51 2.385-4.653 3.324-7.038 2.103C.119 91.81-.607 88.84.907 86.428l33.38-53.146-1.246-.598-2.926-1.406-.103.032a948.205 948.205 0 01-4.866 1.528c-3.147.98-7.346 2.276-11.554 3.533l-.716.214-.176-.727c-.326-1.345-.38-3.996.3-7.342.686-3.369 2.127-7.495 4.85-11.794 2.727-4.306 6.596-8.138 9.756-10.88 1.584-1.375 3-2.484 4.021-3.25a56.605 56.605 0 011.627-1.174l.023-.016.006-.004.002-.001.386.627-.386-.628.861-.582zm6.691 20.403l7.23 3.702 2.108-3.493-7.19-3.798-2.148 3.59zm-2.984.197l1.328.68-.065.11.46.236 8.093 4.143.404.206.066-.11 3.856 1.975-5.554 8.764-4.543-2.185-8.183-3.927-3.178-1.528-.252-.12-.273.086.188.723-.188-.723h-.002l-.004.002-.018.006-.072.023-.28.088a988.51 988.51 0 01-4.86 1.526c-2.951.92-6.828 2.116-10.767 3.298-.138-1.252-.095-3.323.435-5.926.65-3.192 2.022-7.133 4.632-11.253 2.606-4.114 6.341-7.828 9.452-10.527a72.003 72.003 0 014.674-3.725l4.288 17.69.077.321.286.146zm3.371 15.197l-6.056-2.906-24.01 38.229 7.02 3.597 24.277-38.328-1.23-.592h-.001zM17.629 76.399l-7.018-3.596-1.689 2.689 7.007 3.59 1.7-2.683zm-11.11 2.92l1.857-2.957 7.003 3.588-1.868 2.95-6.993-3.58zm6.443 4.448l-6.99-3.578-4.245 6.759c-1.195 1.903-.63 4.213 1.272 5.187 1.938.992 4.523.22 5.751-1.719l4.212-6.649zm55.845-39.393l.353.353c4.5 4.497 5.712 9.043 4.97 13.262-.737 4.183-3.38 7.963-6.425 11.005L56.812 79.886l-4.528 4.528-1.357 1.358-.368.367-.095.096-.025.024-.006.006-.001.002-.354-.353.353.353-.353.354-.354-.354-3.57-3.57-.045.052a633.155 633.155 0 01-4.675 5.283c-2.81 3.142-6.181 6.847-8.403 9.07-2.48 2.483-4.773 2.88-6.485 2.587a6.018 6.018 0 01-2.527-1.075 3.891 3.891 0 01-.188-.15l-.013-.011-.004-.004-.001-.001c-.001-.001-.001-.001.333-.37-.335.368-.335.368-.336.367l-.002-.001-.004-.004-.013-.012a3.106 3.106 0 01-.188-.193 6.41 6.41 0 01-.462-.564 6.594 6.594 0 01-1.023-2.079c-.51-1.812-.276-4.254 2.37-6.9l23.879-23.878 13.928-13.928 4.477-4.477 1.243-1.243.327-.327.083-.083.021-.022.005-.005.002-.001.354.353-.354-.354.354-.353zM24.146 98.078l-.334.369-.001-.001.335-.368zm44.576-52.205l-1.243 1.243-4.477 4.477-13.928 13.928-9.338 9.338 6.369 6.375.152.153.227.225 3.594 3.595.142-.142 1.357-1.358 4.528-4.528 10.893-10.892c2.976-2.974 5.46-6.577 6.146-10.471.66-3.75-.333-7.85-4.34-12.024l-.082.08zM34.106 80.489l4.922-4.922 6.418 6.422-.089.102a637.986 637.986 0 01-4.532 5.122l-6.719-6.724zm-.707.707l-2.231 2.231 6.873 6.878c.715-.787 1.428-1.579 2.116-2.346L33.4 81.196zm-5.17 5.17l2.232-2.232 6.906 6.911c-.727.796-1.448 1.58-2.138 2.32l-7-7zm-.706.706L25.196 89.4c-2.41 2.41-2.521 4.483-2.116 5.922.21.74.564 1.342.87 1.76a5.444 5.444 0 00.502.594l.027.027.004.003.002.002.002.002.024.02a4.433 4.433 0 00.551.376c.39.225.955.48 1.652.599 1.365.232 3.337-.035 5.61-2.31.653-.653 1.408-1.438 2.22-2.3l-7.021-7.022z" fill="url(#paint0_linear)"/><defs><linearGradient id="paint0_linear" x1="38.729" y1="-43.589" x2="38.729" y2="97.69" gradientUnits="userSpaceOnUse"><stop stop-color="#AD844C"/><stop offset=".76" stop-color="#BDA180"/><stop offset="1" stop-color="#AD844C"/></linearGradient></defs></svg>
